X:5
T:La petite boiteuse [ok]
R:
S:
N:
A:Champagne
G:
O:France
Z:<anamnese@laposte.net>
M:2/4
L:1/8
Q:1/4=135
K:C
cA cA | cA FF | GG G2 | FG A2 | cA cA | cA FF | GG G2 | c2 F2 :|
